!!!OTL: ICH BIN VERGNUEGT IM SIEGESTON VERKUEND ES MEIN GEDICHT
!!!ARE: Europa, Mitteleuropa, Deutschland
!!!SCT: B0291
!!!YEM: Copyright 1995, estate of Helmut Schaffrath.
**kern
*ICvox
*Ivox
*M6/8
*k[b-e-a-]
*E-:
{8B-
=1
4e-
8e-
8d
8e-
8d
=2
8c
8d
8e-
4B-}
{8B-
=3
8B-
8A-
8G
8F
8E-
8F
=4
4.G
4r}
{8B-
=5
4g
8g
8f
8e-
8d
=6
4c
8d
4e-}
{8f
=7
8d
8c
8B-
8F
8d
8c
=8
4.B-
4r}
{8f
=9
4f
8e-
8e-
8d
8c
=10
8c
8B-
8A-
4G}
{8e-
=11
4B-
8G
4E-
8G
=12
4F
8G
4E-}
==
!!!AGN: Stimmungs - Lied, Freude
!!!ONB: ESAC (Essen Associative Code) Database: BOEHME
!!!AMT: compound duple
!!!AIN: vox
!!!EED: Helmut Schaffrath
!!!EEV: 1.0
*-
